assets/icons/librescoot-ota-status-downloading.svg

<svg xmlns="http://www.w3.org/2000/svg" width="144" height="144" fill="none" viewBox="0 0 144 144"><g clip-path="url(#a)"><mask id="b" width="144" height="144" x="0" y="0" maskUnits="userSpaceOnUse" style="mask-type:alpha"><path fill="#d9d9d9" d="M0 0h144v144H0z"/></mask><g mask="url(#b)"><path fill="#fff" d="M65.4 131.7q-11.4-1.2-21.15-6.3t-16.875-13.2T16.2 93.75t-4.05-21.9q0-23.25 15.225-40.35T65.55 12v9q-19.2 2.85-31.8 17.25t-12.6 33.6 12.525 33.6T65.4 122.7zM72 102 42 72l6.45-6.45L67.5 84.6V42h9v42.6l19.05-19.05L102 72zm6.6 29.7v-9q6.9-.9 13.275-3.525t11.775-6.975l6.6 6.6q-6.9 5.25-14.925 8.7T78.6 131.7m25.2-100.05q-5.7-4.05-12-6.825T78.6 21v-9q8.7 1.05 16.65 4.425t15 8.625zm15 77.85-6.45-6.3q4.35-5.55 6.9-11.925T122.7 78h9.15q-1.05 8.7-4.35 16.725t-8.7 14.775m3.9-43.8q-.9-6.9-3.45-13.35t-6.9-11.85l7.05-6.15q5.25 6.9 8.4 14.85t4.05 16.5z"/></g></g><defs><clipPath id="a"><path fill="#fff" d="M0 0h144v144H0z"/></clipPath></defs></svg>

<svg width="144" height="144" viewBox="0 0 144 144" fill="none" xmlns="http://www.w3.org/2000/svg">
  <g clip-path="url(#clip0_666_1199)">
    <mask id="mask0_666_1199" style="mask-type:alpha" maskUnits="userSpaceOnUse" x="0" y="0"
      width="144" height="144">
      <rect width="144" height="144" fill="#D9D9D9" />
    </mask>
    <g mask="url(#mask0_666_1199)">
      <path
        d="M65.4 131.7C57.8 130.9 50.75 128.8 44.25 125.4C37.75 122 32.125 117.6 27.375 112.2C22.625 106.8 18.9 100.65 16.2 93.75C13.5 86.85 12.15 79.55 12.15 71.85C12.15 56.35 17.225 42.9 27.375 31.5C37.525 20.1 50.25 13.6 65.55 12V21C52.75 22.9 42.15 28.65 33.75 38.25C25.35 47.85 21.15 59.05 21.15 71.85C21.15 84.65 25.325 95.85 33.675 105.45C42.025 115.05 52.6 120.8 65.4 122.7V131.7ZM72 102L42 72L48.45 65.55L67.5 84.6V42H76.5V84.6L95.55 65.55L102 72L72 102ZM78.6 131.7V122.7C83.2 122.1 87.625 120.925 91.875 119.175C96.125 117.425 100.05 115.1 103.65 112.2L110.25 118.8C105.65 122.3 100.675 125.2 95.325 127.5C89.975 129.8 84.4 131.2 78.6 131.7ZM103.8 31.65C100 28.95 96 26.675 91.8 24.825C87.6 22.975 83.2 21.7 78.6 21V12C84.4 12.7 89.95 14.175 95.25 16.425C100.55 18.675 105.55 21.55 110.25 25.05L103.8 31.65ZM118.8 109.5L112.35 103.2C115.25 99.5 117.55 95.525 119.25 91.275C120.95 87.025 122.1 82.6 122.7 78H131.85C131.15 83.8 129.7 89.375 127.5 94.725C125.3 100.075 122.4 105 118.8 109.5ZM122.7 65.7C122.1 61.1 120.95 56.65 119.25 52.35C117.55 48.05 115.25 44.1 112.35 40.5L119.4 34.35C122.9 38.95 125.7 43.9 127.8 49.2C129.9 54.5 131.25 60 131.85 65.7H122.7Z"
        fill="white" />
    </g>
  </g>
  <defs>
    <clipPath id="clip0_666_1199">
      <rect width="144" height="144" fill="white" />
    </clipPath>
  </defs>
</svg>
